img/icon/Icon_5.svg

<svg width="81" height="79" viewBox="0 0 81 79" fill="none" xmlns="http://www.w3.org/2000/svg">
<g id="Layer 2">
<g id="Layer 1">
<path id="payment" d="M22.3188 15.5581V10.7729C22.3142 10.0336 22.0149 9.32581 21.4857 8.80271C20.9566 8.2796 20.2401 7.98322 19.4913 7.97769H11.4112C10.6587 7.98234 9.93866 8.28073 9.40824 8.80772C8.87781 9.33471 8.58011 10.0475 8.58012 10.7905V15.5581C8.58012 16.3041 8.88027 17.0195 9.41454 17.547C9.94881 18.0745 10.6734 18.3708 11.429 18.3708H19.4913C20.2432 18.3653 20.9623 18.0665 21.492 17.5396C22.0216 17.0127 22.3188 16.3004 22.3188 15.5581ZM11.0052 15.5581V10.7729C11.0052 10.6666 11.048 10.5646 11.1241 10.4895C11.2003 10.4143 11.3035 10.3721 11.4112 10.3721H19.4913C19.5984 10.373 19.7007 10.4156 19.7761 10.4907C19.8514 10.5658 19.8937 10.6672 19.8937 10.7729V15.5581C19.8937 15.6638 19.8514 15.7652 19.7761 15.8403C19.7007 15.9153 19.5984 15.958 19.4913 15.9589H11.4112C11.3038 15.958 11.2011 15.9155 11.1252 15.8405C11.0492 15.7655 11.0062 15.6641 11.0052 15.5581ZM16.7528 24.2882C16.9176 24.2794 17.0825 24.3038 17.2373 24.36C17.3922 24.4162 17.5339 24.5029 17.6537 24.615C17.7735 24.727 17.8689 24.8619 17.9341 25.0116C17.9993 25.1613 18.0329 25.3225 18.0329 25.4854C18.0329 25.6483 17.9993 25.8095 17.9341 25.9591C17.8689 26.1088 17.7735 26.2438 17.6537 26.3558C17.5339 26.4678 17.3922 26.5546 17.2373 26.6108C17.0825 26.6669 16.9176 26.6914 16.7528 26.6826H9.79446C9.48423 26.666 9.19225 26.5326 8.9786 26.3099C8.76494 26.0872 8.64586 25.7921 8.64586 25.4854C8.64586 25.1786 8.76494 24.8836 8.9786 24.6609C9.19225 24.4382 9.48423 24.3048 9.79446 24.2882H16.7528ZM22.5574 24.2882H29.5158C29.826 24.3048 30.118 24.4382 30.3317 24.6609C30.5453 24.8836 30.6644 25.1786 30.6644 25.4854C30.6644 25.7921 30.5453 26.0872 30.3317 26.3099C30.118 26.5326 29.826 26.666 29.5158 26.6826H22.5574C22.2472 26.666 21.9552 26.5326 21.7416 26.3099C21.5279 26.0872 21.4088 25.7921 21.4088 25.4854C21.4088 25.1786 21.5279 24.8836 21.7416 24.6609C21.9552 24.4382 22.2472 24.3048 22.5574 24.2882ZM35.3204 26.6826C35.0102 26.666 34.7182 26.5326 34.5045 26.3099C34.2909 26.0872 34.1718 25.7921 34.1718 25.4854C34.1718 25.1786 34.2909 24.8836 34.5045 24.6609C34.7182 24.4382 35.0102 24.3048 35.3204 24.2882H42.2823C42.5926 24.3048 42.8845 24.4382 43.0982 24.6609C43.3118 24.8836 43.4309 25.1786 43.4309 25.4854C43.4309 25.7921 43.3118 26.0872 43.0982 26.3099C42.8845 26.5326 42.5926 26.666 42.2823 26.6826H35.3204ZM55.0453 26.6826H48.0834C47.7731 26.666 47.4811 26.5326 47.2675 26.3099C47.0538 26.0872 46.9348 25.7921 46.9348 25.4854C46.9348 25.1786 47.0538 24.8836 47.2675 24.6609C47.4811 24.4382 47.7731 24.3048 48.0834 24.2882H55.0453C55.2101 24.2794 55.3749 24.3038 55.5298 24.36C55.6847 24.4162 55.8263 24.5029 55.9461 24.615C56.0659 24.727 56.1613 24.8619 56.2265 25.0116C56.2917 25.1613 56.3254 25.3225 56.3254 25.4854C56.3254 25.6483 56.2917 25.8095 56.2265 25.9591C56.1613 26.1088 56.0659 26.2438 55.9461 26.3558C55.8263 26.4678 55.6847 26.5546 55.5298 26.6108C55.3749 26.6669 55.2101 26.6914 55.0453 26.6826ZM22.9064 33.5633H9.79446C9.62969 33.5721 9.46484 33.5477 9.30996 33.4915C9.15508 33.4353 9.01342 33.3485 8.89362 33.2365C8.77383 33.1245 8.67842 32.9895 8.61322 32.8399C8.54802 32.6902 8.51439 32.529 8.51439 32.3661C8.51439 32.2032 8.54802 32.042 8.61322 31.8923C8.67842 31.7427 8.77383 31.6077 8.89362 31.4957C9.01342 31.3836 9.15508 31.2969 9.30996 31.2407C9.46484 31.1845 9.62969 31.1601 9.79446 31.1689H22.9064C23.2166 31.1855 23.5086 31.3189 23.7223 31.5416C23.9359 31.7643 24.055 32.0593 24.055 32.3661C24.055 32.6728 23.9359 32.9679 23.7223 33.1906C23.5086 33.4133 23.2166 33.5467 22.9064 33.5633ZM29.9716 31.1689H48.3682C48.6785 31.1855 48.9704 31.3189 49.1841 31.5416C49.3978 31.7643 49.5168 32.0593 49.5168 32.3661C49.5168 32.6728 49.3978 32.9679 49.1841 33.1906C48.9704 33.4133 48.6785 33.5467 48.3682 33.5633H29.9716C29.6614 33.5467 29.3694 33.4133 29.1558 33.1906C28.9421 32.9679 28.823 32.6728 28.823 32.3661C28.823 32.0593 28.9421 31.7643 29.1558 31.5416C29.3694 31.3189 29.6614 31.1855 29.9716 31.1689ZM51.007 7.96363C49.7684 7.96656 48.5715 8.40536 47.6311 9.20125C46.8686 8.56601 45.9381 8.15915 44.9492 8.02858C43.9603 7.898 42.9542 8.04916 42.0494 8.46423C41.1446 8.87931 40.3788 9.54102 39.8422 10.3714C39.3056 11.2018 39.0205 12.1664 39.0205 13.1514C39.0205 14.1365 39.3056 15.101 39.8422 15.9314C40.3788 16.7618 41.1446 17.4235 42.0494 17.8386C42.9542 18.2537 43.9603 18.4048 44.9492 18.2743C45.9381 18.1437 46.8686 17.7368 47.6311 17.1016C48.2766 17.6379 49.0436 18.0127 49.867 18.194C50.6905 18.3752 51.546 18.3578 52.3612 18.143C53.1763 17.9282 53.927 17.5225 54.5494 16.9602C55.1719 16.398 55.6478 15.6958 55.9368 14.9132C56.2258 14.1306 56.3194 13.2908 56.2095 12.4649C56.0997 11.639 55.7897 10.8515 55.3059 10.1691C54.8221 9.4867 54.1787 8.9296 53.4303 8.54505C52.682 8.1605 51.8507 7.95985 51.007 7.96011V7.96363ZM44.2694 15.9448C43.5764 15.8642 42.9375 15.5352 42.4738 15.0203C42.0101 14.5054 41.754 13.8404 41.754 13.1514C41.754 12.4624 42.0101 11.7974 42.4738 11.2825C42.9375 10.7676 43.5764 10.4386 44.2694 10.358C45.0217 10.358 45.7431 10.653 46.2751 11.1782C46.807 11.7034 47.1058 12.4157 47.1058 13.1584C47.1058 13.9012 46.807 14.6135 46.2751 15.1387C45.7431 15.6639 45.0217 15.9589 44.2694 15.9589V15.9448ZM51.007 15.9448C50.2954 15.9452 49.6099 15.6802 49.0876 15.203C49.3713 14.5553 49.5176 13.8571 49.5176 13.1514C49.5176 12.4457 49.3713 11.7476 49.0876 11.0999C49.427 10.8039 49.8338 10.5932 50.2734 10.4857C50.7129 10.3783 51.1723 10.3771 51.6124 10.4824C52.0525 10.5877 52.4603 10.7964 52.8013 11.0906C53.1422 11.3849 53.4062 11.7561 53.5707 12.1726C53.7353 12.5892 53.7955 13.0388 53.7464 13.4832C53.6973 13.9277 53.5402 14.3539 53.2885 14.7256C53.0368 15.0973 52.698 15.4035 52.3008 15.6182C51.9036 15.8329 51.4598 15.9498 51.007 15.9589V15.9448ZM6.55386 47.8697C3.50913 48.2213 0.553416 46.8149 0.5 43.4818V4.38791C0.500943 3.22445 0.969478 2.10891 1.80273 1.28622C2.63598 0.463526 3.76585 0.000931141 4.94425 0L59.8955 0C61.0739 0.000931141 62.2038 0.463526 63.037 1.28622C63.8703 2.10891 64.3388 3.22445 64.3397 4.38791V34.7024C64.3229 35.0087 64.1879 35.297 63.9623 35.508C63.7367 35.7189 63.4379 35.8365 63.1272 35.8365C62.8165 35.8365 62.5177 35.7189 62.2921 35.508C62.0665 35.297 61.9315 35.0087 61.9146 34.7024V4.38791C61.9146 3.85919 61.7019 3.35212 61.3232 2.97826C60.9446 2.6044 60.431 2.39436 59.8955 2.39436H4.94425C4.40874 2.39436 3.89516 2.6044 3.5165 2.97826C3.13784 3.35212 2.92511 3.85919 2.92511 4.38791V43.4818C2.99277 45.5527 4.99054 45.5597 6.56098 45.4753C6.87118 45.4928 7.16278 45.627 7.3758 45.8503C7.58881 46.0736 7.70702 46.3691 7.70611 46.6758C7.7052 46.9826 7.58523 47.2773 7.37089 47.4994C7.15655 47.7215 6.86415 47.854 6.55386 47.8697ZM79.2821 38.2957H11.4112C11.0891 38.2957 10.7803 38.4221 10.5525 38.6469C10.3248 38.8717 10.1969 39.1767 10.1969 39.4947V77.7869C10.1969 77.9444 10.2283 78.1003 10.2893 78.2457C10.3503 78.3912 10.4398 78.5234 10.5525 78.6347C10.6653 78.746 10.7992 78.8343 10.9465 78.8946C11.0938 78.9548 11.2517 78.9858 11.4112 78.9858H79.2892C79.6107 78.9849 79.9186 78.8582 80.1456 78.6334C80.3726 78.4087 80.5 78.1043 80.5 77.7869V39.4947C80.5005 39.3374 80.4695 39.1816 80.4089 39.0361C80.3482 38.8907 80.2591 38.7585 80.1466 38.6471C80.0342 38.5357 79.9005 38.4474 79.7534 38.3871C79.6063 38.3268 79.4485 38.2957 79.2892 38.2957H79.2821ZM78.0678 76.5915H12.6077V40.6901H78.0607L78.0678 76.5915ZM18.683 67.0176C19.647 67.0185 20.5712 67.397 21.2529 68.07C21.9345 68.743 22.3179 69.6556 22.3188 70.6073C22.3188 70.9244 22.4464 71.2284 22.6735 71.4526C22.9005 71.6768 23.2085 71.8028 23.5296 71.8028H67.1673C67.4884 71.8028 67.7963 71.6768 68.0234 71.4526C68.2505 71.2284 68.378 70.9244 68.378 70.6073C68.3799 69.6558 68.7636 68.7438 69.445 68.071C70.1265 67.3982 71.0502 67.0194 72.0139 67.0176C72.3354 67.0176 72.6437 66.8917 72.8713 66.6676C73.0989 66.4436 73.2273 66.1395 73.2282 65.8221V51.4595C73.2273 51.1421 73.0989 50.838 72.8713 50.614C72.6437 50.3899 72.3354 50.264 72.0139 50.264C71.0502 50.2622 70.1265 49.8834 69.445 49.2106C68.7636 48.5378 68.3799 47.6258 68.378 46.6743C68.3785 46.517 68.3475 46.3611 68.2869 46.2157C68.2262 46.0703 68.1371 45.9381 68.0247 45.8267C67.9122 45.7153 67.7786 45.6269 67.6314 45.5666C67.4843 45.5064 67.3266 45.4753 67.1673 45.4753H23.5296C23.3703 45.4753 23.2126 45.5064 23.0654 45.5666C22.9183 45.6269 22.7847 45.7153 22.6722 45.8267C22.5597 45.9381 22.4706 46.0703 22.41 46.2157C22.3493 46.3611 22.3184 46.517 22.3188 46.6743C22.3202 47.1467 22.2273 47.6148 22.0452 48.0518C21.8632 48.4887 21.5956 48.8859 21.2579 49.2207C20.9202 49.5554 20.5189 49.8211 20.0771 50.0026C19.6352 50.184 19.1615 50.2776 18.683 50.2781C18.3615 50.2781 18.0532 50.4039 17.8255 50.628C17.5979 50.8521 17.4696 51.1562 17.4686 51.4735V65.8362C17.4733 66.1511 17.6033 66.4516 17.8305 66.6726C18.0577 66.8937 18.364 67.0176 18.683 67.0176ZM19.8937 52.5353C21.0576 52.2991 22.1258 51.7313 22.9663 50.902C23.8068 50.0728 24.3827 49.0186 24.6229 47.8697H66.0776C66.3145 49.0195 66.8889 50.075 67.7292 50.9047C68.5695 51.7343 69.6386 52.3015 70.8031 52.5353V64.7462C69.6386 64.9801 68.5695 65.5473 67.7292 66.3769C66.8889 67.2066 66.3145 68.2621 66.0776 69.4119H24.6229C24.3827 68.263 23.8068 67.2088 22.9663 66.3795C22.1258 65.5503 21.0576 64.9825 19.8937 64.7462V52.5353ZM31.3569 63.4348C32.62 63.401 33.8199 62.8818 34.7012 61.9878C35.5826 61.0937 36.0757 59.8954 36.0757 58.6478C36.0757 57.4002 35.5826 56.2019 34.7012 55.3079C33.8199 54.4138 32.62 53.8947 31.3569 53.8609C30.1113 53.9186 28.9361 54.4478 28.0753 55.3386C27.2145 56.2293 26.7342 57.4132 26.7342 58.6443C26.7342 59.8755 27.2145 61.0593 28.0753 61.9501C28.9361 62.8408 30.1113 63.37 31.3569 63.4278V63.4348ZM31.3569 56.2552C31.9835 56.2789 32.5765 56.5414 33.0113 56.9875C33.4462 57.4336 33.6891 58.0287 33.6891 58.6478C33.6891 59.267 33.4462 59.862 33.0113 60.3081C32.5765 60.7543 31.9835 61.0167 31.3569 61.0404C30.7303 61.0167 30.1373 60.7543 29.7025 60.3081C29.2676 59.862 29.0247 59.267 29.0247 58.6478C29.0247 58.0287 29.2676 57.4336 29.7025 56.9875C30.1373 56.5414 30.7303 56.2789 31.3569 56.2552ZM59.6391 63.4348C60.9022 63.401 62.1021 62.8818 62.9835 61.9878C63.8648 61.0937 64.3579 59.8954 64.3579 58.6478C64.3579 57.4002 63.8648 56.2019 62.9835 55.3079C62.1021 54.4138 60.9022 53.8947 59.6391 53.8609C58.3935 53.9186 57.2183 54.4478 56.3575 55.3386C55.4967 56.2293 55.0165 57.4132 55.0165 58.6443C55.0165 59.8755 55.4967 61.0593 56.3575 61.9501C57.2183 62.8408 58.3935 63.37 59.6391 63.4278V63.4348ZM59.6391 56.2552C60.2657 56.2789 60.8587 56.5414 61.2935 56.9875C61.7284 57.4336 61.9713 58.0287 61.9713 58.6478C61.9713 59.267 61.7284 59.862 61.2935 60.3081C60.8587 60.7543 60.2657 61.0167 59.6391 61.0404C59.0125 61.0167 58.4195 60.7543 57.9847 60.3081C57.5498 59.862 57.3069 59.267 57.3069 58.6478C57.3069 58.0287 57.5498 57.4336 57.9847 56.9875C58.4195 56.5414 59.0125 56.2789 59.6391 56.2552ZM44.1305 50.7176C44.0415 49.8316 44.1946 48.6748 45.3413 48.6748C46.488 48.6748 46.6411 49.8281 46.5521 50.7141C47.3196 50.8734 48.0372 51.212 48.645 51.7013C49.2528 52.1907 49.733 52.8167 50.0455 53.5268C50.1527 53.8162 50.1429 54.1353 50.0182 54.4178C49.8934 54.7002 49.6633 54.9244 49.3756 55.0438C49.0879 55.1633 48.7647 55.1687 48.473 55.0591C48.1813 54.9494 47.9436 54.7331 47.8091 54.4551C46.9474 52.1732 42.6562 52.7287 42.7203 55.2215C42.7203 56.7299 43.575 57.4647 45.3413 57.4647C46.5691 57.3062 47.8104 57.6357 48.7921 58.3808C49.7738 59.1259 50.4156 60.2255 50.5761 61.4377C50.7367 62.65 50.4029 63.8755 49.6483 64.8448C48.8936 65.8141 47.7799 66.4477 46.5521 66.6062C46.6411 67.4922 46.4844 68.6419 45.3413 68.6454C44.1982 68.6489 44.0415 67.4887 44.1305 66.6027C43.3662 66.441 42.652 66.1015 42.0474 65.6122C41.4429 65.1229 40.9655 64.4982 40.6549 63.7899C40.5298 63.4976 40.5274 63.1681 40.6483 62.874C40.7691 62.58 41.0034 62.3453 41.2995 62.2218C41.5956 62.0982 41.9292 62.0959 42.2271 62.2152C42.5249 62.3346 42.7626 62.5658 42.8877 62.8582C43.7495 65.1435 48.0442 64.5845 47.9801 62.0952C47.9801 60.608 47.0934 59.852 45.3413 59.852C44.1135 60.0106 42.8722 59.681 41.8905 58.936C40.9088 58.1909 40.2671 57.0912 40.1065 55.879C39.9459 54.6668 40.2797 53.4412 41.0344 52.472C41.789 51.5027 42.9027 50.8691 44.1305 50.7106V50.7176Z" fill="#161616"/>
</g>
</g>
</svg>

<svg xmlns="http://www.w3.org/2000/svg" width="81" height="79" fill="none">
    <path fill="#161616"
        d="M22.319 15.558v-4.785a2.795 2.795 0 0 0-.833-1.97 2.867 2.867 0 0 0-1.995-.825h-8.08a2.867 2.867 0 0 0-2.003.83 2.795 2.795 0 0 0-.828 1.982v4.768c0 .746.3 1.462.835 1.989a2.867 2.867 0 0 0 2.014.824h8.062a2.867 2.867 0 0 0 2.001-.831c.53-.527.827-1.24.827-1.982Zm-11.314 0v-4.785a.409.409 0 0 1 .406-.4h8.08c.107 0 .21.043.285.118a.399.399 0 0 1 .118.282v4.785a.399.399 0 0 1-.118.282.409.409 0 0 1-.285.119h-8.08a.412.412 0 0 1-.286-.118.402.402 0 0 1-.12-.283Zm5.748 8.73a1.228 1.228 0 0 1 .9.327 1.198 1.198 0 0 1 .38.87 1.185 1.185 0 0 1-.38.87 1.218 1.218 0 0 1-.9.328H9.794a1.221 1.221 0 0 1-.815-.373 1.19 1.19 0 0 1 0-1.65c.213-.222.505-.355.815-.372h6.959Zm5.804 0h6.959c.31.017.602.15.816.373a1.19 1.19 0 0 1 0 1.649 1.221 1.221 0 0 1-.816.373h-6.959a1.22 1.22 0 0 1-.815-.373 1.19 1.19 0 0 1 0-1.65 1.22 1.22 0 0 1 .815-.372Zm12.763 2.395a1.221 1.221 0 0 1-.816-.373 1.191 1.191 0 0 1 0-1.65c.214-.222.506-.355.816-.372h6.962c.31.017.603.15.816.373a1.19 1.19 0 0 1 0 1.649 1.221 1.221 0 0 1-.816.373H35.32Zm19.725 0h-6.962a1.22 1.22 0 0 1-.816-.373 1.19 1.19 0 0 1 0-1.65 1.22 1.22 0 0 1 .816-.372h6.962a1.229 1.229 0 0 1 .901.327 1.198 1.198 0 0 1 .38.87 1.186 1.186 0 0 1-.38.87 1.218 1.218 0 0 1-.9.328Zm-32.139 6.88H9.794a1.229 1.229 0 0 1-.9-.327 1.199 1.199 0 0 1-.38-.87 1.186 1.186 0 0 1 .38-.87 1.216 1.216 0 0 1 .9-.327h13.112c.31.017.603.15.816.373a1.19 1.19 0 0 1 0 1.649 1.221 1.221 0 0 1-.816.372Zm7.066-2.394h18.396c.31.017.602.15.816.373a1.19 1.19 0 0 1 0 1.649 1.221 1.221 0 0 1-.816.372H29.972a1.22 1.22 0 0 1-.816-.372 1.19 1.19 0 0 1 0-1.65 1.22 1.22 0 0 1 .816-.372ZM51.007 7.964A5.246 5.246 0 0 0 47.631 9.2a5.295 5.295 0 0 0-5.582-.737 5.215 5.215 0 0 0-2.207 1.907 5.121 5.121 0 0 0 0 5.56 5.215 5.215 0 0 0 2.207 1.908 5.296 5.296 0 0 0 5.582-.737 5.273 5.273 0 0 0 2.236 1.092 5.312 5.312 0 0 0 2.494-.051 5.265 5.265 0 0 0 2.188-1.183 5.174 5.174 0 0 0 1.388-2.047 5.117 5.117 0 0 0-.631-4.744 5.225 5.225 0 0 0-1.876-1.624 5.3 5.3 0 0 0-2.423-.585v.004Zm-6.738 7.98a2.86 2.86 0 0 1-1.795-.924 2.792 2.792 0 0 1-.72-1.869c0-.689.256-1.354.72-1.868a2.86 2.86 0 0 1 1.795-.925c.753 0 1.474.295 2.006.82.532.525.83 1.238.83 1.98 0 .743-.298 1.456-.83 1.98a2.855 2.855 0 0 1-2.006.82v-.013Zm6.738 0a2.844 2.844 0 0 1-1.92-.741 5.112 5.112 0 0 0 0-4.103 2.85 2.85 0 0 1 3.714-.01c.341.295.605.666.77 1.083a2.745 2.745 0 0 1-.282 2.553 2.8 2.8 0 0 1-.988.892 2.841 2.841 0 0 1-1.294.34v-.013ZM6.554 47.87c-3.045.351-6-1.055-6.054-4.388V4.388c0-1.164.47-2.28 1.303-3.102A4.477 4.477 0 0 1 4.944 0h54.952c1.178 0 2.308.464 3.141 1.286a4.363 4.363 0 0 1 1.303 3.102v30.314a1.192 1.192 0 0 1-.378.806 1.223 1.223 0 0 1-1.67 0c-.226-.211-.36-.5-.377-.806V4.388a1.98 1.98 0 0 0-.592-1.41 2.032 2.032 0 0 0-1.428-.584H4.945c-.536 0-1.05.21-1.429.584a1.98 1.98 0 0 0-.59 1.41v39.094c.067 2.07 2.065 2.078 3.635 1.993.31.018.602.152.815.375a1.19 1.19 0 0 1-.005 1.65 1.221 1.221 0 0 1-.817.37Zm72.728-9.574h-67.87c-.323 0-.632.126-.86.35-.227.226-.355.53-.355.849v38.292a1.186 1.186 0 0 0 .356.848 1.218 1.218 0 0 0 .858.35H79.29c.322 0 .63-.127.857-.352a1.19 1.19 0 0 0 .354-.846V39.495a1.183 1.183 0 0 0-.353-.848 1.21 1.21 0 0 0-.858-.351h-.007ZM78.068 76.59h-65.46v-35.9H78.06l.007 35.9Zm-59.385-9.573c.964 0 1.888.379 2.57 1.052a3.57 3.57 0 0 1 1.066 2.537c0 .317.127.621.355.846.227.224.535.35.856.35h43.637c.321 0 .63-.126.856-.35.228-.225.355-.529.355-.846a3.574 3.574 0 0 1 1.067-2.536 3.667 3.667 0 0 1 2.569-1.053c.321 0 .63-.126.857-.35.228-.224.356-.529.357-.846V51.46c0-.317-.13-.621-.357-.845a1.222 1.222 0 0 0-.857-.35 3.667 3.667 0 0 1-2.569-1.053 3.574 3.574 0 0 1-1.067-2.537 1.182 1.182 0 0 0-.353-.847 1.212 1.212 0 0 0-.858-.352H23.53a1.227 1.227 0 0 0-.858.352 1.194 1.194 0 0 0-.353.847c.001.473-.092.94-.274 1.378-.182.437-.45.834-.787 1.169-.338.334-.74.6-1.18.782a3.682 3.682 0 0 1-1.395.275c-.322 0-.63.126-.857.35a1.192 1.192 0 0 0-.357.846v14.362c.004.315.134.616.361.837.228.22.534.345.853.345Zm1.21-14.483a6.102 6.102 0 0 0 3.073-1.633 5.98 5.98 0 0 0 1.657-3.032h41.455a5.955 5.955 0 0 0 1.651 3.035c.84.83 1.91 1.396 3.074 1.63v12.211a6.078 6.078 0 0 0-3.074 1.63 5.955 5.955 0 0 0-1.651 3.036H24.623a5.98 5.98 0 0 0-1.657-3.033 6.103 6.103 0 0 0-3.072-1.633v-12.21Zm11.464 10.9a4.88 4.88 0 0 0 3.344-1.447 4.757 4.757 0 0 0 1.375-3.34 4.757 4.757 0 0 0-1.375-3.34 4.88 4.88 0 0 0-3.344-1.447 4.877 4.877 0 0 0-3.282 1.478 4.756 4.756 0 0 0-1.34 3.305c0 1.232.48 2.415 1.34 3.306.861.89 2.036 1.42 3.282 1.478v.007Zm0-7.18a2.44 2.44 0 0 1 1.654.732c.435.447.678 1.042.678 1.66 0 .62-.243 1.215-.678 1.661a2.439 2.439 0 0 1-1.654.732 2.439 2.439 0 0 1-1.654-.732 2.378 2.378 0 0 1-.678-1.66c0-.62.243-1.214.678-1.66a2.44 2.44 0 0 1 1.654-.733Zm28.282 7.18a4.88 4.88 0 0 0 3.344-1.447 4.757 4.757 0 0 0 1.375-3.34 4.757 4.757 0 0 0-1.375-3.34 4.88 4.88 0 0 0-3.344-1.447 4.877 4.877 0 0 0-3.282 1.478 4.756 4.756 0 0 0-1.34 3.305c0 1.232.48 2.415 1.34 3.306.861.89 2.037 1.42 3.282 1.478v.007Zm0-7.18a2.44 2.44 0 0 1 1.654.732c.435.447.678 1.042.678 1.66 0 .62-.243 1.215-.677 1.661a2.439 2.439 0 0 1-1.655.732 2.439 2.439 0 0 1-1.654-.732 2.378 2.378 0 0 1-.678-1.66c0-.62.243-1.214.678-1.66a2.44 2.44 0 0 1 1.654-.733ZM44.13 50.718c-.089-.886.065-2.043 1.211-2.043 1.147 0 1.3 1.153 1.211 2.04.768.158 1.485.497 2.093.986a4.856 4.856 0 0 1 1.4 1.826c.108.29.098.608-.027.89a1.207 1.207 0 0 1-.642.627c-.288.12-.611.125-.903.015a1.21 1.21 0 0 1-.664-.604c-.862-2.282-5.153-1.726-5.089.767 0 1.508.855 2.243 2.621 2.243a4.713 4.713 0 0 1 3.451.916 4.567 4.567 0 0 1 .856 6.464 4.682 4.682 0 0 1-3.096 1.761c.09.886-.068 2.036-1.21 2.04-1.144.003-1.3-1.157-1.212-2.043a4.935 4.935 0 0 1-2.083-.99 4.853 4.853 0 0 1-1.392-1.823 1.183 1.183 0 0 1-.007-.916c.121-.294.355-.529.651-.652.297-.124.63-.126.928-.007.298.12.536.35.66.643.862 2.286 5.157 1.727 5.093-.763 0-1.487-.887-2.243-2.639-2.243a4.713 4.713 0 0 1-3.45-.916 4.598 4.598 0 0 1-1.785-3.057 4.566 4.566 0 0 1 .928-3.407 4.682 4.682 0 0 1 3.096-1.761v.007Z" />
</svg>
